web/workspace/public/assets/products/dadi-track-bg.svg

<svg viewBox="0 0 116.26 157.69" xmlns="http://www.w3.org/2000/svg"><path d="m64.25 1.47-58.75 33.92a11 11 0 0 0 -5.5 9.53v41a11 11 0 0 0 5.5 9.53l12.25 7.07a11 11 0 0 1 5.5 9.53v14.14a11 11 0 0 0 5.5 9.53l35.5 20.5c3.4 2 7 2 11 0l12.75-7.38a10 10 0 0 0 5-8.66v-68.41a11 11 0 0 1 5.5-9.53l12.25-7.07a11 11 0 0 0 5.5-9.53v-14.14a11 11 0 0 0 -5.5-9.53l-35.5-20.5a11 11 0 0 0 -11 0zm28.75 37.1-23.24 13.43v80.54l-23.26-13.43v-53.69l-23.25 13.42v-26.84l23.25-13.43 23.25-13.42z" fill="#f6f6f6"/></svg>

<svg id="Layer_1" data-name="Layer 1" xmlns="http://www.w3.org/2000/svg" viewBox="0 0 116.26 157.69"><defs><style>.cls-1{fill:#f6f6f6;}</style></defs><title>Artboard 42</title><path class="cls-1" d="M64.25,1.47,5.5,35.39A11,11,0,0,0,0,44.92v41a11,11,0,0,0,5.5,9.53l12.25,7.07a11,11,0,0,1,5.5,9.53v14.14a11,11,0,0,0,5.5,9.53l35.5,20.5c3.4,2,7,2,11,0L88,148.84a10,10,0,0,0,5-8.66V71.77a11,11,0,0,1,5.5-9.53l12.25-7.07a11,11,0,0,0,5.5-9.53V31.5a11,11,0,0,0-5.5-9.53L75.25,1.47A11,11,0,0,0,64.25,1.47ZM93,38.57,69.76,52v80.54h0L46.5,119.11V65.42L23.25,78.84V52L46.5,38.57,69.75,25.15,93,38.57h0Z"/></svg>
